!!!COM: Merulo, Claudio
!!!CDT: 1533/04/08-1604/05/04
!!!OTL: Caro amoroso neo
!!!PTL: Il primo fiore della ghirlanda musicale
!!!PPP: Venice
!!!PPR: Heirs of G. Scotto
!!!PDT: 1577
!!!RISM: 1577-7
!!!rime: 602
!!!AGN: Madrigal
!!!SCT: Trm0602a
!!!SCA: Trm0602a
!!!voices: 5
**kern	**text	**kern	**text
*staff2	*staff2	*staff1	*staff1
*Ivox	*	*Ivox	*
*I"Alto	*	*I"Canto	*
*I'A	*	*I'C	*
*oclefC2	*	*oclefG2	*
*clefG2v8	*	*clefG2	*
*k[]	*	*k[]	*
*omet(C|)	*	*omet(C|)	*
*M2/1	*	*M2/1	*
!!incipit: 4
=1	=1	=1	=1
0r	.	1a	Ca-
.	.	2cc	-ro a-
.	.	2dd	-mo-
=2	=2	=2	=2
0r	.	4ee	-ro-
.	.	4dd	.
.	.	4cc	.
.	.	4b	.
.	.	2a	.
.	.	2cc	-so
=3	=3	=3	=3
1a	Ca-	2.ff	ne-
.	.	4ee	.
2f	-ro a-	4dd	.
.	.	8ccL	.
.	.	8ddJ	.
2e	-mo-	2ee	.
=4	=4	=4	=4
4d	-ro-	1a	-o,
4e	.	.	.
4f	.	.	.
4g	.	.	.
2a	.	1r	.
2b	-so	.	.
=5	=5	=5	=5
2cc	ne-	0r	.
2a	-o,	.	.
2.a	Ca-	.	.
4g	.	.	.
=6	=6	=6	=6
2f	.	1a	Ca-
2f	-ro a-	.	.
2e	-mo-	2cc	-ro a-
[2d	-ro-	2dd	-mo-
=7	=7	=7	=7
2d]	.	1ee	-ro-
2c#i	-so	.	.
2.d	ne-	2a	-so
.	.	[2ff	ne-
4e	.	.	.
=8	=8	=8	=8
4f	.	4ff]	.
4g	.	4ee	.
2a	.	2.dd	.
[1a	-o,	.	.
.	.	8cc#iL	.
.	.	8bJ	.
.	.	2cc#i	.
=9	=9	=9	=9
1a]	.	1dd	-o,
1r	.	1r	.
=10	=10	=10	=10
0r	.	0r	.
=11	=11	=11	=11
2r	.	2r	.
1a	Che	2ff	Che
.	.	2ff	s&igrave; il-
2a	s&igrave; il-	[2ee	-lu-
=12	=12	=12	=12
2.g	-lu-	4ee]	.
.	.	4dd	.
.	.	2dd	-stri un
4d	-stri un	.	.
2f	bel	1cc	bel
2e	vol-	.	.
=13	=13	=13	=13
1f	-to	2.a	vol-
.	.	4g	.
2r	.	4a	.
.	.	4b	.
2a	Col	2cc	-to
=14	=14	=14	=14
2a	ne-	2r	.
2d	-ro	2dd	Col
2f	tuo	2dd	ne-
2e	fra 'l	2cc#X	-ro
=15	=15	=15	=15
4a	suo	2.dd	tuo
4g	.	.	.
4f	.	.	.
4e	.	4ee	fra 'l
2d	.	2ff	suo
2e	can-	2ee	can-
=16	=16	=16	=16
2.f	-dor	2.dd	-dor
4g	.	8ccL	.
.	.	8bJ	.
1a	.	4a	.
.	.	4b	.
.	.	2cc	.
=17	=17	=17	=17
2g	ac-	2cc	ac-
2.f	-col-	2.a	-col-
4e	.	8g#iL	.
.	.	8f#iJ	.
[2d	.	2g#i	.
=18	=18	=18	=18
4d]	.	0a	-to,
8c#iL	.	.	.
8BJ	.	.	.
4c#i	.	.	.
8BL	.	.	.
8c#iJ	.	.	.
1d	.	.	.
=19	=19	=19	=19
1a	-to,	2r	.
.	.	2ee	Se
2r	.	2.ff	per
2a	Se	.	.
.	.	4ff	te
=20	=20	=20	=20
4b-	per	4dd	stes-
4b-i	te	4dd	-so
4a	stes-	2cc#X	se-
4a	-so	.	.
2f	se-	[1dd	-i
4d	-i	.	.
[4b-X	<Se	.	.
=21	=21	=21	=21
4b-]	.	0dd]	.
4b-i	per	.	.
2a	te	.	.
4b-i	stes-	.	.
4b-i	-so	.	.
2a	se-	.	.
=22	=22	=22	=22
1a	-i>	2r	.
.	.	2.ff	Tu
4r	.	.	.
2a	Tu	4ff	pur
.	.	2ee	mac-
4e	pur	.	.
=23	=23	=23	=23
2.f	mac-	2.a	-chia e
4f	-chia e	4a	di-
4e	di-	2ee	-fet-
2a	-fet-	.	.
.	.	2dd	-to,
8g#iL	.	.	.
8f#iJ	.	.	.
=24	=24	=24	=24
2g#i	.	2r	.
4a	-to,	2cc	Con
2a	Con	.	.
.	.	2dd	qual
4a	qual	.	.
[2gni	ar-	2ee	ar-
=25	=25	=25	=25
4g]	.	4ee	-te
2a	-te	4ee	per-
.	.	2ff	-fet-
4b	per-	.	.
1cc	-fet-	1ee	-to
=26	=26	=26	=26
2a	-to	0r	.
2r	.	.	.
1r	.	.	.
=27	=27	=27	=27
1r	.	2r	.
.	.	2ee	Poi
2a	Poi	4dd	ren-
.	.	4cc	-di il
4g	ren-	4b	col-
4f	-di il	4b	-mo
=28	=28	=28	=28
4e	col-	4a	del-
4e	-mo	4cc	-le
4d	del-	4b	gra-
4f	-le	4a	-tie in
4e	gra-	4a	le-
4d	-tie in	4g#i	.
4d	le-	[2a	-i,
4c#i	.	.	.
=29	=29	=29	=29
2d	-i!	2a]	.
2r	.	2r	.
2r	.	1r	.
4r	.	.	.
4a	<Poi	.	.
=30	=30	=30	=30
4g	ren-	2gg	<Poi
4e	-di il	.	.
4a	col-	4ff	ren-
4g	-mo	4ee	-di il
2f	del-	4dd	col-
.	.	4dd	-mo
4e	-le	4cc	del-
4cc	gra-	4ee	-le
=31	=31	=31	=31
4b	-tie in	4dd	gra-
2a	le-	4cc	-tie in
.	.	2b	le-
4g#i	.	.	.
2a	-i!>	1cc	-i!>
4r	.	.	.
[4a	For-	.	.
=32	=32	=32	=32
4a]	.	0r	.
4a	-se	.	.
2gni	mac-	.	.
4cc	-chie	.	.
4b	s&igrave;	.	.
2a	bel-	.	.
=33	=33	=33	=33
2g	-le	2r	.
2b	So-	2.ee	So-
2cc	-no	.	.
.	.	4ee	-no
2a	del	2dd	del
=34	=34	=34	=34
4cc	ciel	2gg	ciel
4b	le	.	.
4.cc	stel-	4ff	le
.	.	2ee	stel-
8b	.	.	.
2a	.	.	.
.	.	4dd	.
4b	-le,	[2ee	-le?
[4B	<So-	.	.
=35	=35	=35	=35
4B]	.	1ee]	.
2e	-no	.	.
4e	del	.	.
4c	ciel	1r	.
4B	le	.	.
2A	stel-	.	.
=36	=36	=36	=36
2B	-le?>	1r	.
2r	.	.	.
1g	Ma	[1ee	Ma
=37	=37	=37	=37
2cc	se	2ee]	.
1cc	ta-	2ee	se
.	.	1gg	ta-
2cc	-li ha	.	.
=38	=38	=38	=38
2a	co-	2ff	-li ha
2.a	-ste-	2ee	co-
.	.	1ee	-ste-
8g#iL	.	.	.
8f#iJ	.	.	.
2g#i	.	.	.
=39	=39	=39	=39
2a	-i,	1cc	-i,
1cc	<Ma	.	.
.	.	2r	.
2cc	se	[2gg	<Ma
=40	=40	=40	=40
1.cc	ta-	2gg]	.
.	.	2gg	se
.	.	1ee	ta-
2cc	-li ha	.	.
=41	=41	=41	=41
2a	co-	2dd	-li ha
2.a	-ste-	2cc	co-
.	.	1b	-ste-
8g#iL	.	.	.
8f#iJ	.	.	.
2g#i	.	.	.
=42	=42	=42	=42
0a	-i>	1e	-i>
.	.	1r	.
=43	=43	=43	=43
1r	.	2r	.
.	.	2ee	In
4r	.	4dd	sua
4d	In	4ff	bel-
4c	sua	2ee	-t&agrave;
4e	bel-	.	.
=44	=44	=44	=44
4d	-t&agrave;	4a	le
4f	le	2dd	men-
2e	men-	.	.
.	.	4cc#i	.
1d	-de,	2dd	-de,
.	.	4r	.
.	.	4dd	Quai
=45	=45	=45	=45
2r	.	4gg	poi
.	.	4gg	sa-
2a	Quai	4ff	-ran-
.	.	4ff	-no i
4cc	poi	2ee	fre-
4cc	sa-	.	.
4a	-ran-	2dd	-gi,
4a	-no i	.	.
=46	=46	=46	=46
2g#X	fre-	4r	.
.	.	4ee	<Quai
2a	-gi,	4cc	poi
.	.	4a	sa-
4r	.	4.dd	-ran-
4a	<Quai	.	.
.	.	8cc	-no i
4gni	poi	2b	fre-
4e	sa-	.	.
=47	=47	=47	=47
4.a	-ran-	2a	-gi>
8g	-no i	.	.
4f	fre-	4r	.
4e	-gi>	4ee	on-
4r	.	4ff	-d'el-
4a	on-	4ff	-la
4b-	-d'el-	2dd	splen-
4b-i	-la	.	.
=48	=48	=48	=48
2g	splen-	2ee	-de,
4a	-de,	4r	.
4a	<on-	4cc	<on-
4a	-d'el-	2ff	-d'el-
4a	-la	.	.
2g#X	splen-	2ee	-la
=49	=49	=49	=49
1a	-de,>	1.ee	splen-
4r	.	.	.
4a	on-	.	.
4f	-d'el-	2a	-de,>
4d	-la	.	.
=50	=50	=50	=50
2g	splen-	2ee	on-
2a	-de,	4cc	-d'el-
.	.	4a	-la
2r	.	4.dd	splen-
.	.	8cc	.
4r	.	2b	.
4b	<on-	.	.
=51	=51	=51	=51
2cc	-d'el-	1a	-de,
2cc	-la	.	.
1a	splen-	2r	.
.	.	2dd	<on-
=52	=52	=52	=52
2g	-de,>	2b	-d'el-
2b	<on-	2g	-la
4cc	-d'el-	2.gg	splen-
4cc	-la	.	.
[2b	splen-	.	.
.	.	4ff	.
=53	=53	=53	=53
4b]	.	0ee	.
4a	.	.	.
2.a	.	.	.
8g#iL	.	.	.
8f#iJ	.	.	.
2g#i	.	.	.
=54	=54	=54	=54
0al	-de?>	0cc#Xl	-de?>
==	==	==	==
*-	*-	*-	*-
!!!RDF**kern: i = editorial accidental
!!!RDF**kern: l = terminal long
!!!ENC: Emiliano Ricciardi
!!!END: 2013
!!!EED: Emiliano Ricciardi
!!!EEV: 2013/08/19
!!!YEC: Copyright 2013 Emiliano Ricciardi, All Rights Reserved
!!!ONB: Translated from MusicXML on 2013/08/19 and edited by Craig Stuart Sapp
